X:360
T:Spring Gardens Hornpipe,aka. RH.360
R:.hornpipe
S:Rev.R.Harrison’s MS,c1815,Cumbria
N:Title from Browne Family MS.
N:Titled only “A Hornpipe” in MS.
O:England
A:Temple Sowerby,Cumbria
Z:vmp.Simon Wilson. Review PJH, 2008.
M:C|
L:1/8
Q:1/2=90
K:D
fg|ad’af bgec|dfdA fdAF|\
GBef gfed|((3cde) ((3dcB) A2 fg|!
ad’af bgec|dfdA fdAF|\
Gbag fedc|e2d2 d2:|!
|:cd|e^def gfga|babc’ d’afa|\
d’c’ba gfed|((3cde) ((3dcB) A2fg|!
ad’af bgec|dfdA fdAF|\
Gbag fedc|e2d2 d2:|
W:Titled only “A Hornpipe” in MS.

